offer/images/tiny/lock.svg

<svg height="45" viewBox="0 0 45 45" width="45" xmlns="http://www.w3.org/2000/svg"><g fill="none"><g fill="#828282"><path d="m30.8548828 43.499707c-.1634766-.1635644-.3902344-.2575195-.6213867-.2575195-.2311524 0-.4579102.0939551-.6213867.2575195-.1634766.1635645-.2575196.3902344-.2575196.6213868 0 .2311523.094043.4579101.2575196.6212988.1634765.1634765.3902343.2576074.6213867.2576074.2311523 0 .4579101-.094043.6213867-.2576074.1634766-.1633887.2575195-.3901465.2575195-.6212988 0-.2311524-.0940429-.4579102-.2575195-.6213868z"/><path d="m22.4989453 39.9563965c-.4854199 0-.8789062.3935742-.8789062.8789062v3.2857911c0 .485332.3934863.8789062.8789062.8789062s.8789063-.3935742.8789063-.8789062v-3.2857911c0-.485332-.3934864-.8789062-.8789063-.8789062z"/><path d="m22.4989453 0c-.4854199 0-.8789062.39357422-.8789062.87890625v3.28579102c0 .48533203.3934863.87890625.8789062.87890625s.8789063-.39357422.8789063-.87890625v-3.28579102c0-.48533203-.3934864-.87890625-.8789063-.87890625z"/><path d="m4.16469727 13.8875098h-3.28579102c-.48541992 0-.87890625.3935742-.87890625.8789062s.39348633.8789063.87890625.8789063h3.28579102c.48541992 0 .87890625-.3935743.87890625-.8789063s-.39348633-.8789062-.87890625-.8789062z"/><path d="m4.16469727 29.3546777h-3.28579102c-.48541992 0-.87890625.3935743-.87890625.8789063s.39348633.8789062.87890625.8789062h3.28579102c.48541992 0 .87890625-.3935742.87890625-.8789062s-.39348633-.8789063-.87890625-.8789063z"/><path d="m44.1210938 13.8875098h-3.2857911c-.4854199 0-.8789062.3935742-.8789062.8789062s.3934863.8789063.8789062.8789063h3.2857911c.4854199 0 .8789062-.3935743.8789062-.8789063s-.3934863-.8789062-.8789062-.8789062z"/><path d="m44.1210938 29.3546777h-3.2857911c-.4854199 0-.8789062.3935743-.8789062.8789063s.3934863.8789062.8789062.8789062h3.2857911c.4854199 0 .8789062-.3935742.8789062-.8789062s-.3934863-.8789063-.8789062-.8789063z"/><path d="m44.1210938 21.6200391h-5.625v-14.2372266c0-.48533203-.3934864-.87890625-.8789063-.87890625h-6.5046973v-5.625c0-.48533203-.3934863-.87890625-.8789062-.87890625s-.8789063.39357422-.8789063.87890625v5.625h-13.7093554v-2.37304687c0-.48533204-.3934864-.87890626-.8789063-.87890626s-.8789062.39357422-.8789062.87890626v2.37304687h-6.5046973c-.48541992 0-.87890625.39357422-.87890625.87890625v14.2372266h-5.625c-.48541992 0-.87890625.3935742-.87890625.8789062s.39348633.8789063.87890625.8789063h5.625v14.2393359c0 .485332.39348633.8789063.87890625.8789063h6.5046973v5.625c0 .485332.3934863.8789062.8789062.8789062s.8789063-.3935742.8789063-.8789062v-5.625h13.7093554v2.109375c0 .485332.3934864.8789062.8789063.8789062s.8789062-.3935742.8789062-.8789062v-2.109375h6.5046973c.4854199 0 .8789063-.3935743.8789063-.8789063v-14.2393359h5.625c.4854199 0 .8789062-.3935743.8789062-.8789063s-.3934863-.8789062-.8789062-.8789062zm-7.3828126 15.1182421h-28.47656245v-28.47656245h28.47656245z"/><path d="m33.3984375 10.7226562h-21.796875c-.4854199 0-.8789063.3935743-.8789063.8789063v21.796875c0 .485332.3934864.8789063.8789063.8789063h21.796875c.4854199 0 .8789063-.3935743.8789063-.8789063v-21.796875c0-.485332-.3934864-.8789063-.8789063-.8789063zm-.8789063 21.796875h-20.0390624v-20.0390624h20.0390624z"/><path d="m15.3878906.25751953c-.1634765-.16347656-.3902344-.25751953-.6213867-.25751953s-.4579102.09395508-.6213867.25751953c-.1634766.16356445-.2575195.39023438-.2575195.62138672s.0940429.45791016.2575195.62129883c.1634766.16356445.3902344.25760742.6213867.25760742s.4579102-.09404297.6213867-.25760742c.1634766-.16338867.2575196-.39014649.2575196-.62129883s-.094043-.45791016-.2575196-.62138672z"/></g><path d="m26.7144434 19.5012598v-.9021973c0-2.3237402-1.8906153-4.2143555-4.2144434-4.2143555s-4.2144434 1.8906153-4.2144434 4.2143555v.9021973c-1.1292187.0547558-2.0309765.9904394-2.0309765 2.1330175v6.8453614c-.0000879 1.1775586.9580078 2.1355664 2.1355664 2.1355664h8.2196191c1.1775586 0 2.1356543-.9580078 2.1356543-2.1355664v-6.8453614c0-1.1424902-.9018457-2.0782617-2.0309765-2.1330175zm-6.6710743-.9021094c0-1.3545703 1.1020606-2.456543 2.4566309-2.456543s2.4566309 1.1019727 2.4566309 2.456543v.8994726h-4.9132618zm6.9442383 9.8804883c0 .2083008-.1694531.3777539-.3778418.3777539h-3.2559961c.0158203-.065918.0250489-.1342969.0250489-.2050488v-2.2831348c0-.485332-.3934864-.8789063-.8789063-.8789063s-.8789062.3935743-.8789062.8789063v2.2831348c0 .0707519.0092285.1391308.0250488.2050488h-3.2559961c-.2083887 0-.3778418-.1694531-.3778418-.3777539v-6.8453614h.0000879c0-.2083007.1694531-.3778418.3778418-.3778418h8.2196191c.2083887 0 .3778418.1695411.3778418.3778418z" fill="#a03ee5"/><path d="m23.1213867 22.8014648c-.1634765-.1634765-.3902344-.2575195-.6213867-.2575195s-.4579102.0939551-.6213867.2575195c-.1634766.1634766-.2575195.3902344-.2575195.6213868 0 .2311523.0940429.4579101.2575195.6212988.1634765.1635644.3902344.2576074.6213867.2576074s.4579102-.094043.6213867-.2576074c.1634766-.1633887.2575195-.3901465.2575195-.6212988 0-.2311524-.0940429-.4579102-.2575195-.6213868z" fill="#a03ee5"/></g></svg>

<?xml version="1.0" encoding="UTF-8"?>
<svg width="45px" height="45px" viewBox="0 0 45 45" version="1.1" xmlns="http://www.w3.org/2000/svg" xmlns:xlink="http://www.w3.org/1999/xlink">
    <!-- Generator: Sketch 52.2 (67145) - http://www.bohemiancoding.com/sketch -->
    <title>cyber-security</title>
    <desc>Created with Sketch.</desc>
    <g id="Page-1" stroke="none" stroke-width="1" fill="none" fill-rule="evenodd">
        <g id="home" transform="translate(-683.000000, -1382.000000)" fill-rule="nonzero">
            <g id="cyber-security" transform="translate(683.000000, 1382.000000)">
                <path d="M30.8548828,43.499707 C30.6914062,43.3361426 30.4646484,43.2421875 30.2334961,43.2421875 C30.0023437,43.2421875 29.7755859,43.3361426 29.6121094,43.499707 C29.4486328,43.6632715 29.3545898,43.8899414 29.3545898,44.1210938 C29.3545898,44.3522461 29.4486328,44.5790039 29.6121094,44.7423926 C29.7755859,44.9058691 30.0023437,45 30.2334961,45 C30.4646484,45 30.6914062,44.905957 30.8548828,44.7423926 C31.0183594,44.5790039 31.1124023,44.3522461 31.1124023,44.1210938 C31.1124023,43.8899414 31.0183594,43.6631836 30.8548828,43.499707 Z" id="Shape" fill="#828282"></path>
                <path d="M22.4989453,39.9563965 C22.0135254,39.9563965 21.6200391,40.3499707 21.6200391,40.8353027 L21.6200391,44.1210938 C21.6200391,44.6064258 22.0135254,45 22.4989453,45 C22.9843652,45 23.3778516,44.6064258 23.3778516,44.1210938 L23.3778516,40.8353027 C23.3778516,40.3499707 22.9843652,39.9563965 22.4989453,39.9563965 Z" id="Shape" fill="#828282"></path>
                <path d="M22.4989453,0 C22.0135254,0 21.6200391,0.393574219 21.6200391,0.87890625 L21.6200391,4.16469727 C21.6200391,4.6500293 22.0135254,5.04360352 22.4989453,5.04360352 C22.9843652,5.04360352 23.3778516,4.6500293 23.3778516,4.16469727 L23.3778516,0.87890625 C23.3778516,0.393574219 22.9843652,0 22.4989453,0 Z" id="Shape" fill="#828282"></path>
                <path d="M4.16469727,13.8875098 L0.87890625,13.8875098 C0.393486328,13.8875098 0,14.281084 0,14.766416 C0,15.251748 0.393486328,15.6453223 0.87890625,15.6453223 L4.16469727,15.6453223 C4.65011719,15.6453223 5.04360352,15.251748 5.04360352,14.766416 C5.04360352,14.281084 4.65011719,13.8875098 4.16469727,13.8875098 Z" id="Shape" fill="#828282"></path>
                <path d="M4.16469727,29.3546777 L0.87890625,29.3546777 C0.393486328,29.3546777 0,29.748252 0,30.233584 C0,30.718916 0.393486328,31.1124902 0.87890625,31.1124902 L4.16469727,31.1124902 C4.65011719,31.1124902 5.04360352,30.718916 5.04360352,30.233584 C5.04360352,29.748252 4.65011719,29.3546777 4.16469727,29.3546777 Z" id="Shape" fill="#828282"></path>
                <path d="M44.1210938,13.8875098 L40.8353027,13.8875098 C40.3498828,13.8875098 39.9563965,14.281084 39.9563965,14.766416 C39.9563965,15.251748 40.3498828,15.6453223 40.8353027,15.6453223 L44.1210938,15.6453223 C44.6065137,15.6453223 45,15.251748 45,14.766416 C45,14.281084 44.6065137,13.8875098 44.1210938,13.8875098 Z" id="Shape" fill="#828282"></path>
                <path d="M44.1210938,29.3546777 L40.8353027,29.3546777 C40.3498828,29.3546777 39.9563965,29.748252 39.9563965,30.233584 C39.9563965,30.718916 40.3498828,31.1124902 40.8353027,31.1124902 L44.1210938,31.1124902 C44.6065137,31.1124902 45,30.718916 45,30.233584 C45,29.748252 44.6065137,29.3546777 44.1210938,29.3546777 Z" id="Shape" fill="#828282"></path>
                <path d="M44.1210938,21.6200391 L38.4960938,21.6200391 L38.4960938,7.3828125 C38.4960938,6.89748047 38.1026074,6.50390625 37.6171875,6.50390625 L31.1124902,6.50390625 L31.1124902,0.87890625 C31.1124902,0.393574219 30.7190039,0 30.233584,0 C29.7481641,0 29.3546777,0.393574219 29.3546777,0.87890625 L29.3546777,6.50390625 L15.6453223,6.50390625 L15.6453223,4.13085938 C15.6453223,3.64552734 15.2518359,3.25195312 14.766416,3.25195312 C14.2809961,3.25195312 13.8875098,3.64552734 13.8875098,4.13085938 L13.8875098,6.50390625 L7.3828125,6.50390625 C6.89739258,6.50390625 6.50390625,6.89748047 6.50390625,7.3828125 L6.50390625,21.6200391 L0.87890625,21.6200391 C0.393486328,21.6200391 0,22.0136133 0,22.4989453 C0,22.9842773 0.393486328,23.3778516 0.87890625,23.3778516 L6.50390625,23.3778516 L6.50390625,37.6171875 C6.50390625,38.1025195 6.89739258,38.4960938 7.3828125,38.4960938 L13.8875098,38.4960938 L13.8875098,44.1210938 C13.8875098,44.6064258 14.2809961,45 14.766416,45 C15.2518359,45 15.6453223,44.6064258 15.6453223,44.1210938 L15.6453223,38.4960938 L29.3546777,38.4960938 L29.3546777,40.6054688 C29.3546777,41.0908008 29.7481641,41.484375 30.233584,41.484375 C30.7190039,41.484375 31.1124902,41.0908008 31.1124902,40.6054688 L31.1124902,38.4960938 L37.6171875,38.4960938 C38.1026074,38.4960938 38.4960938,38.1025195 38.4960938,37.6171875 L38.4960938,23.3778516 L44.1210938,23.3778516 C44.6065137,23.3778516 45,22.9842773 45,22.4989453 C45,22.0136133 44.6065137,21.6200391 44.1210938,21.6200391 Z M36.7382812,36.7382812 L8.26171875,36.7382812 L8.26171875,8.26171875 L36.7382812,8.26171875 L36.7382812,36.7382812 Z" id="Shape" fill="#828282"></path>
                <path d="M33.3984375,10.7226562 L11.6015625,10.7226562 C11.1161426,10.7226562 10.7226562,11.1162305 10.7226562,11.6015625 L10.7226562,33.3984375 C10.7226562,33.8837695 11.1161426,34.2773438 11.6015625,34.2773438 L33.3984375,34.2773438 C33.8838574,34.2773438 34.2773438,33.8837695 34.2773438,33.3984375 L34.2773438,11.6015625 C34.2773438,11.1162305 33.8838574,10.7226562 33.3984375,10.7226562 Z M32.5195312,32.5195312 L12.4804688,32.5195312 L12.4804688,12.4804688 L32.5195312,12.4804688 L32.5195312,32.5195312 Z" id="Shape" fill="#828282"></path>
                <path d="M15.3878906,0.257519531 C15.2244141,0.0940429688 14.9976562,0 14.7665039,0 C14.5353516,0 14.3085937,0.0939550781 14.1451172,0.257519531 C13.9816406,0.421083984 13.8875977,0.647753906 13.8875977,0.87890625 C13.8875977,1.11005859 13.9816406,1.33681641 14.1451172,1.50020508 C14.3085938,1.66376953 14.5353516,1.7578125 14.7665039,1.7578125 C14.9976562,1.7578125 15.2244141,1.66376953 15.3878906,1.50020508 C15.5513672,1.33681641 15.6454102,1.11005859 15.6454102,0.87890625 C15.6454102,0.647753906 15.5513672,0.420996094 15.3878906,0.257519531 Z" id="Shape" fill="#828282"></path>
                <path d="M26.7144434,19.5012598 L26.7144434,18.5990625 C26.7144434,16.2753223 24.8238281,14.384707 22.5,14.384707 C20.1761719,14.384707 18.2855566,16.2753223 18.2855566,18.5990625 L18.2855566,19.5012598 C17.1563379,19.5560156 16.2545801,20.4916992 16.2545801,21.6342773 L16.2545801,28.4796387 C16.2544922,29.6571973 17.2125879,30.6152051 18.3901465,30.6152051 L26.6097656,30.6152051 C27.7873242,30.6152051 28.7454199,29.6571973 28.7454199,28.4796387 L28.7454199,21.6342773 C28.7454199,20.4917871 27.8435742,19.5560156 26.7144434,19.5012598 Z M20.0433691,18.5991504 C20.0433691,17.2445801 21.1454297,16.1426074 22.5,16.1426074 C23.8545703,16.1426074 24.9566309,17.2445801 24.9566309,18.5991504 L24.9566309,19.498623 L20.0433691,19.498623 L20.0433691,18.5991504 Z M26.9876074,28.4796387 C26.9876074,28.6879395 26.8181543,28.8573926 26.6097656,28.8573926 L23.3537695,28.8573926 C23.3695898,28.7914746 23.3788184,28.7230957 23.3788184,28.6523438 L23.3788184,26.369209 C23.3788184,25.883877 22.985332,25.4903027 22.4999121,25.4903027 C22.0144922,25.4903027 21.6210059,25.883877 21.6210059,26.369209 L21.6210059,28.6523438 C21.6210059,28.7230957 21.6302344,28.7914746 21.6460547,28.8573926 L18.3900586,28.8573926 C18.1816699,28.8573926 18.0122168,28.6879395 18.0122168,28.4796387 L18.0122168,21.6342773 L18.0123047,21.6342773 C18.0123047,21.4259766 18.1817578,21.2564355 18.3901465,21.2564355 L26.6097656,21.2564355 C26.8181543,21.2564355 26.9876074,21.4259766 26.9876074,21.6342773 L26.9876074,28.4796387 Z" id="Shape" fill="#A03EE5"></path>
                <path d="M23.1213867,22.8014648 C22.9579102,22.6379883 22.7311523,22.5439453 22.5,22.5439453 C22.2688477,22.5439453 22.0420898,22.6379004 21.8786133,22.8014648 C21.7151367,22.9649414 21.6210938,23.1916992 21.6210938,23.4228516 C21.6210938,23.6540039 21.7151367,23.8807617 21.8786133,24.0441504 C22.0420898,24.2077148 22.2688477,24.3017578 22.5,24.3017578 C22.7311523,24.3017578 22.9579102,24.2077148 23.1213867,24.0441504 C23.2848633,23.8807617 23.3789062,23.6540039 23.3789062,23.4228516 C23.3789062,23.1916992 23.2848633,22.9649414 23.1213867,22.8014648 Z" id="Shape" fill="#A03EE5"></path>
            </g>
        </g>
    </g>
</svg>
